X:6426
T:Tanner's March
O:england
M:3/4
L:1/8
Q:1/4=140
C:Tanner
R:March
K:Em
|: G2EG2E |G2Bc3 |G2EG2E |G2BA3 |G2EG2E |G2Bc3 |cBA BAG |AGF G3 :|
|: d2d GBc |d2Bd3 |d2d GBc |d2BA3 |d2d GBc |d2Bd3 |dcBc2B |1AGA BAG :|2
AGF G3||


